Newaita-dark/apps/22/accessories-ebook-reader.svg

<?xml version="1.0" encoding="UTF-8"?>
<svg xmlns="http://www.w3.org/2000/svg" xmlns:xlink="http://www.w3.org/1999/xlink" width="22pt" height="22pt" viewBox="0 0 22 22" version="1.1">
<defs>
<linearGradient id="linear0" gradientUnits="userSpaceOnUse" x1="254" y1="233.5" x2="254" y2="254.666672" gradientTransform="matrix(0.0429729,0,0,0.0429729,-2.728779,9.239165)">
<stop offset="0" style="stop-color:rgb(0%,0%,0%);stop-opacity:0.27451;"/>
<stop offset="1" style="stop-color:rgb(0%,0%,0%);stop-opacity:0;"/>
</linearGradient>
<radialGradient id="radial0" gradientUnits="userSpaceOnUse" cx="450.908936" cy="189.579361" fx="450.908936" fy="189.579361" r="21.166656" gradientTransform="matrix(0.000000119742,-0.0537161,-0.0966889,-0.0000000698078,36.749414,43.721791)">
<stop offset="0" style="stop-color:rgb(0%,0%,0%);stop-opacity:0.313725;"/>
<stop offset="0.222222" style="stop-color:rgb(0%,0%,0%);stop-opacity:0.27451;"/>
<stop offset="1" style="stop-color:rgb(0%,0%,0%);stop-opacity:0;"/>
</radialGradient>
<radialGradient id="radial1" gradientUnits="userSpaceOnUse" cx="450.908936" cy="189.579361" fx="450.908936" fy="189.579361" r="21.166656" gradientTransform="matrix(-0.000000119742,0.0537161,0.0966889,0.0000000698078,-14.919205,-5.175142)">
<stop offset="0" style="stop-color:rgb(0%,0%,0%);stop-opacity:0.313725;"/>
<stop offset="0.222222" style="stop-color:rgb(0%,0%,0%);stop-opacity:0.27451;"/>
<stop offset="1" style="stop-color:rgb(0%,0%,0%);stop-opacity:0;"/>
</radialGradient>
<radialGradient id="radial2" gradientUnits="userSpaceOnUse" cx="450.908936" cy="189.579361" fx="450.908936" fy="189.579361" r="21.166656" gradientTransform="matrix(-0.000000119742,-0.0537161,0.0966889,-0.0000000698078,-14.919205,43.721791)">
<stop offset="0" style="stop-color:rgb(0%,0%,0%);stop-opacity:0.313725;"/>
<stop offset="0.222222" style="stop-color:rgb(0%,0%,0%);stop-opacity:0.27451;"/>
<stop offset="1" style="stop-color:rgb(0%,0%,0%);stop-opacity:0;"/>
</radialGradient>
<radialGradient id="radial3" gradientUnits="userSpaceOnUse" cx="450.908936" cy="189.579361" fx="450.908936" fy="189.579361" r="21.166656" gradientTransform="matrix(0.000000119742,0.0537161,-0.0966889,0.0000000698078,36.749413,-5.175142)">
<stop offset="0" style="stop-color:rgb(0%,0%,0%);stop-opacity:0.313725;"/>
<stop offset="0.222222" style="stop-color:rgb(0%,0%,0%);stop-opacity:0.27451;"/>
<stop offset="1" style="stop-color:rgb(0%,0%,0%);stop-opacity:0;"/>
</radialGradient>
<linearGradient id="linear1" gradientUnits="userSpaceOnUse" x1="42.333332" y1="32.416664" x2="254" y2="32.416664" gradientTransform="matrix(0.0429729,0,0,0.0429729,0,9.239163)">
<stop offset="0" style="stop-color:rgb(93.333333%,93.333333%,93.333333%);stop-opacity:1;"/>
<stop offset="1" style="stop-color:rgb(87.843137%,87.843137%,87.843137%);stop-opacity:1;"/>
</linearGradient>
<linearGradient id="linear2" gradientUnits="userSpaceOnUse" x1="465.666656" y1="21.833334" x2="254" y2="21.833334" gradientTransform="matrix(0.0429729,0,0,0.0429729,0,9.239163)">
<stop offset="0" style="stop-color:rgb(87.843137%,87.843137%,87.843137%);stop-opacity:1;"/>
<stop offset="1" style="stop-color:rgb(74.117647%,74.117647%,74.117647%);stop-opacity:1;"/>
</linearGradient>
<linearGradient id="linear3" gradientUnits="userSpaceOnUse" x1="840" y1="1175.118164" x2="840" y2="135.118118" gradientTransform="matrix(0.264583,0,0,0.264583,-10.583328,-209.708084)">
<stop offset="0" style="stop-color:rgb(93.72549%,32.54902%,31.372549%);stop-opacity:1;"/>
<stop offset="1" style="stop-color:rgb(89.803922%,45.098039%,45.098039%);stop-opacity:1;"/>
</linearGradient>
</defs>
<g id="surface1">
<path style=" stroke:none;fill-rule:nonzero;fill:url(#linear0);" d="M 3.183594 19.273438 L 18.648438 19.273438 L 18.648438 20.183594 L 3.183594 20.183594 Z M 3.183594 19.273438 "/>
<path style=" stroke:none;fill-rule:nonzero;fill:url(#radial0);" d="M 18.648438 19.273438 L 20.464844 19.273438 L 20.464844 18.363281 L 18.648438 18.363281 Z M 18.648438 19.273438 "/>
<path style=" stroke:none;fill-rule:nonzero;fill:url(#radial1);" d="M 3.183594 19.273438 L 1.363281 19.273438 L 1.363281 20.183594 L 3.183594 20.183594 Z M 3.183594 19.273438 "/>
<path style=" stroke:none;fill-rule:nonzero;fill:url(#radial2);" d="M 3.183594 19.273438 L 1.363281 19.273438 L 1.363281 18.363281 L 3.183594 18.363281 Z M 3.183594 19.273438 "/>
<path style=" stroke:none;fill-rule:nonzero;fill:url(#radial3);" d="M 18.648438 19.273438 L 20.464844 19.273438 L 20.464844 20.183594 L 18.648438 20.183594 Z M 18.648438 19.273438 "/>
<path style=" stroke:none;fill-rule:nonzero;fill:url(#linear1);" d="M 2.730469 1.992188 L 19.101562 1.992188 C 19.605469 1.992188 20.011719 2.398438 20.011719 2.902344 L 20.011719 18.363281 C 20.011719 18.867188 19.605469 19.273438 19.101562 19.273438 L 2.730469 19.273438 C 2.226562 19.273438 1.820312 18.867188 1.820312 18.363281 L 1.820312 2.902344 C 1.820312 2.398438 2.226562 1.992188 2.730469 1.992188 Z M 2.730469 1.992188 "/>
<path style=" stroke:none;fill-rule:nonzero;fill:url(#linear2);" d="M 10.914062 1.992188 L 10.914062 19.273438 L 19.101562 19.273438 C 19.605469 19.273438 20.011719 18.867188 20.011719 18.363281 L 20.011719 2.902344 C 20.011719 2.398438 19.605469 1.992188 19.101562 1.992188 Z M 10.914062 1.992188 "/>
<path style=" stroke:none;fill-rule:nonzero;fill:rgb(0%,0%,0%);fill-opacity:0.196078;" d="M 2.730469 19.277344 C 2.226562 19.277344 1.820312 18.871094 1.820312 18.367188 L 1.820312 18.191406 C 1.820312 18.695312 2.226562 19.101562 2.730469 19.101562 L 19.101562 19.101562 C 19.605469 19.101562 20.011719 18.695312 20.011719 18.191406 L 20.011719 18.367188 C 20.011719 18.871094 19.605469 19.277344 19.101562 19.277344 Z M 2.730469 19.277344 "/>
<path style=" stroke:none;fill-rule:nonzero;fill:rgb(100%,100%,100%);fill-opacity:0.588235;" d="M 2.730469 1.992188 C 2.226562 1.992188 1.820312 2.398438 1.820312 2.902344 L 1.820312 3.074219 C 1.820312 2.570312 2.226562 2.164062 2.730469 2.164062 L 19.101562 2.164062 C 19.605469 2.164062 20.011719 2.570312 20.011719 3.074219 L 20.011719 2.902344 C 20.011719 2.398438 19.605469 1.992188 19.101562 1.992188 Z M 2.730469 1.992188 "/>
<path style=" stroke:none;fill-rule:nonzero;fill:rgb(25.882354%,25.882354%,25.882354%);fill-opacity:1;" d="M 3.183594 4.71875 L 9.777344 4.71875 C 9.902344 4.71875 10.003906 4.820312 10.003906 4.945312 C 10.003906 5.074219 9.902344 5.175781 9.777344 5.175781 L 3.183594 5.175781 C 3.058594 5.175781 2.957031 5.074219 2.957031 4.945312 C 2.957031 4.820312 3.058594 4.71875 3.183594 4.71875 Z M 3.183594 4.71875 "/>
<path style=" stroke:none;fill-rule:nonzero;fill:rgb(25.882354%,25.882354%,25.882354%);fill-opacity:1;" d="M 3.183594 6.085938 L 9.777344 6.085938 C 9.902344 6.085938 10.003906 6.1875 10.003906 6.3125 C 10.003906 6.4375 9.902344 6.539062 9.777344 6.539062 L 3.183594 6.539062 C 3.058594 6.539062 2.957031 6.4375 2.957031 6.3125 C 2.957031 6.1875 3.058594 6.085938 3.183594 6.085938 Z M 3.183594 6.085938 "/>
<path style=" stroke:none;fill-rule:nonzero;fill:rgb(25.882354%,25.882354%,25.882354%);fill-opacity:1;" d="M 3.183594 7.449219 L 9.777344 7.449219 C 9.902344 7.449219 10.003906 7.550781 10.003906 7.675781 C 10.003906 7.800781 9.902344 7.902344 9.777344 7.902344 L 3.183594 7.902344 C 3.058594 7.902344 2.957031 7.800781 2.957031 7.675781 C 2.957031 7.550781 3.058594 7.449219 3.183594 7.449219 Z M 3.183594 7.449219 "/>
<path style=" stroke:none;fill-rule:nonzero;fill:rgb(25.882354%,25.882354%,25.882354%);fill-opacity:1;" d="M 3.183594 8.8125 L 9.777344 8.8125 C 9.902344 8.8125 10.003906 8.914062 10.003906 9.039062 C 10.003906 9.164062 9.902344 9.269531 9.777344 9.269531 L 3.183594 9.269531 C 3.058594 9.269531 2.957031 9.164062 2.957031 9.039062 C 2.957031 8.914062 3.058594 8.8125 3.183594 8.8125 Z M 3.183594 8.8125 "/>
<path style=" stroke:none;fill-rule:nonzero;fill:rgb(12.941177%,12.941177%,12.941177%);fill-opacity:1;" d="M 2.730469 1.925781 C 2.191406 1.925781 1.753906 2.363281 1.753906 2.902344 L 1.753906 18.363281 C 1.753906 18.902344 2.191406 19.335938 2.730469 19.335938 L 19.101562 19.335938 C 19.640625 19.335938 20.074219 18.902344 20.074219 18.363281 L 20.074219 2.902344 C 20.074219 2.363281 19.640625 1.925781 19.101562 1.925781 Z M 2.730469 2.054688 L 19.101562 2.054688 C 19.570312 2.054688 19.945312 2.429688 19.945312 2.902344 L 19.945312 18.363281 C 19.945312 18.832031 19.570312 19.207031 19.101562 19.207031 L 2.730469 19.207031 C 2.257812 19.207031 1.882812 18.832031 1.882812 18.363281 L 1.882812 2.902344 C 1.882812 2.429688 2.257812 2.054688 2.730469 2.054688 Z M 2.730469 2.054688 "/>
<path style=" stroke:none;fill-rule:nonzero;fill:rgb(0%,0%,0%);fill-opacity:0.196078;" d="M 11.027344 1.992188 L 11.027344 19.273438 L 10.914062 19.273438 L 10.914062 1.992188 Z M 11.027344 1.992188 "/>
<path style=" stroke:none;fill-rule:nonzero;fill:rgb(90.196079%,90.196079%,90.196079%);fill-opacity:0.588235;" d="M 10.914062 1.992188 L 10.914062 19.273438 L 10.800781 19.273438 L 10.800781 1.992188 Z M 10.914062 1.992188 "/>
<path style=" stroke:none;fill-rule:nonzero;fill:rgb(12.941177%,12.941177%,12.941177%);fill-opacity:0.992157;" d="M 10.972656 1.992188 L 10.972656 19.273438 L 10.859375 19.273438 L 10.859375 1.992188 Z M 10.972656 1.992188 "/>
<path style=" stroke:none;fill-rule:nonzero;fill:rgb(25.882354%,25.882354%,25.882354%);fill-opacity:1;" d="M 3.183594 10.175781 L 9.777344 10.175781 C 9.902344 10.175781 10.003906 10.277344 10.003906 10.40625 C 10.003906 10.53125 9.902344 10.632812 9.777344 10.632812 L 3.183594 10.632812 C 3.058594 10.632812 2.957031 10.53125 2.957031 10.40625 C 2.957031 10.277344 3.058594 10.175781 3.183594 10.175781 Z M 3.183594 10.175781 "/>
<path style=" stroke:none;fill-rule:nonzero;fill:rgb(25.882354%,25.882354%,25.882354%);fill-opacity:1;" d="M 3.183594 11.542969 L 9.777344 11.542969 C 9.902344 11.542969 10.003906 11.644531 10.003906 11.769531 C 10.003906 11.894531 9.902344 11.996094 9.777344 11.996094 L 3.183594 11.996094 C 3.058594 11.996094 2.957031 11.894531 2.957031 11.769531 C 2.957031 11.644531 3.058594 11.542969 3.183594 11.542969 Z M 3.183594 11.542969 "/>
<path style=" stroke:none;fill-rule:nonzero;fill:rgb(25.882354%,25.882354%,25.882354%);fill-opacity:1;" d="M 3.183594 12.90625 L 9.777344 12.90625 C 9.902344 12.90625 10.003906 13.007812 10.003906 13.132812 C 10.003906 13.257812 9.902344 13.359375 9.777344 13.359375 L 3.183594 13.359375 C 3.058594 13.359375 2.957031 13.257812 2.957031 13.132812 C 2.957031 13.007812 3.058594 12.90625 3.183594 12.90625 Z M 3.183594 12.90625 "/>
<path style=" stroke:none;fill-rule:nonzero;fill:rgb(25.882354%,25.882354%,25.882354%);fill-opacity:1;" d="M 3.183594 14.269531 L 9.777344 14.269531 C 9.902344 14.269531 10.003906 14.371094 10.003906 14.496094 C 10.003906 14.625 9.902344 14.726562 9.777344 14.726562 L 3.183594 14.726562 C 3.058594 14.726562 2.957031 14.625 2.957031 14.496094 C 2.957031 14.371094 3.058594 14.269531 3.183594 14.269531 Z M 3.183594 14.269531 "/>
<path style="fill-rule:nonzero;fill:url(#linear3);stroke-width:3;stroke-linecap:round;stroke-linejoin:miter;stroke:rgb(12.941177%,12.941177%,12.941177%);stroke-opacity:1;stroke-miterlimit:4;" d="M 201.071708 -173.913015 C 195.254081 -173.913015 190.52726 -169.277094 190.52726 -163.368567 L 190.52726 80.062732 C 190.52726 81.426238 190.618161 82.880645 190.890862 84.244151 L 211.707056 27.158693 C 214.343168 20.522963 219.615391 20.522963 222.251503 27.158693 L 242.976797 84.244151 C 243.249498 82.880645 243.431299 81.426238 243.431299 80.062732 L 243.431299 -163.368567 C 243.431299 -169.277094 238.704478 -173.913015 232.795951 -173.913015 Z M 201.071708 -173.913015 " transform="matrix(0.0429729,0,0,0.0429729,0,9.239163)"/>
<path style=" stroke:none;fill-rule:nonzero;fill:rgb(25.882354%,25.882354%,25.882354%);fill-opacity:1;" d="M 12.050781 4.71875 L 18.648438 4.71875 C 18.773438 4.71875 18.875 4.820312 18.875 4.945312 C 18.875 5.074219 18.773438 5.175781 18.648438 5.175781 L 12.050781 5.175781 C 11.925781 5.175781 11.824219 5.074219 11.824219 4.945312 C 11.824219 4.820312 11.925781 4.71875 12.050781 4.71875 Z M 12.050781 4.71875 "/>
<path style=" stroke:none;fill-rule:nonzero;fill:rgb(25.882354%,25.882354%,25.882354%);fill-opacity:1;" d="M 12.050781 6.085938 L 18.648438 6.085938 C 18.773438 6.085938 18.875 6.1875 18.875 6.3125 C 18.875 6.4375 18.773438 6.539062 18.648438 6.539062 L 12.050781 6.539062 C 11.925781 6.539062 11.824219 6.4375 11.824219 6.3125 C 11.824219 6.1875 11.925781 6.085938 12.050781 6.085938 Z M 12.050781 6.085938 "/>
<path style=" stroke:none;fill-rule:nonzero;fill:rgb(25.882354%,25.882354%,25.882354%);fill-opacity:1;" d="M 12.050781 7.449219 L 18.648438 7.449219 C 18.773438 7.449219 18.875 7.550781 18.875 7.675781 C 18.875 7.800781 18.773438 7.902344 18.648438 7.902344 L 12.050781 7.902344 C 11.925781 7.902344 11.824219 7.800781 11.824219 7.675781 C 11.824219 7.550781 11.925781 7.449219 12.050781 7.449219 Z M 12.050781 7.449219 "/>
<path style=" stroke:none;fill-rule:nonzero;fill:rgb(25.882354%,25.882354%,25.882354%);fill-opacity:1;" d="M 12.050781 8.8125 L 18.648438 8.8125 C 18.773438 8.8125 18.875 8.914062 18.875 9.039062 C 18.875 9.164062 18.773438 9.269531 18.648438 9.269531 L 12.050781 9.269531 C 11.925781 9.269531 11.824219 9.164062 11.824219 9.039062 C 11.824219 8.914062 11.925781 8.8125 12.050781 8.8125 Z M 12.050781 8.8125 "/>
<path style=" stroke:none;fill-rule:nonzero;fill:rgb(25.882354%,25.882354%,25.882354%);fill-opacity:1;" d="M 12.050781 10.175781 L 18.648438 10.175781 C 18.773438 10.175781 18.875 10.277344 18.875 10.40625 C 18.875 10.53125 18.773438 10.632812 18.648438 10.632812 L 12.050781 10.632812 C 11.925781 10.632812 11.824219 10.53125 11.824219 10.40625 C 11.824219 10.277344 11.925781 10.175781 12.050781 10.175781 Z M 12.050781 10.175781 "/>
<path style=" stroke:none;fill-rule:nonzero;fill:rgb(25.882354%,25.882354%,25.882354%);fill-opacity:1;" d="M 12.050781 11.542969 L 18.648438 11.542969 C 18.773438 11.542969 18.875 11.644531 18.875 11.769531 C 18.875 11.894531 18.773438 11.996094 18.648438 11.996094 L 12.050781 11.996094 C 11.925781 11.996094 11.824219 11.894531 11.824219 11.769531 C 11.824219 11.644531 11.925781 11.542969 12.050781 11.542969 Z M 12.050781 11.542969 "/>
<path style=" stroke:none;fill-rule:nonzero;fill:rgb(25.882354%,25.882354%,25.882354%);fill-opacity:1;" d="M 12.050781 12.90625 L 18.648438 12.90625 C 18.773438 12.90625 18.875 13.007812 18.875 13.132812 C 18.875 13.257812 18.773438 13.359375 18.648438 13.359375 L 12.050781 13.359375 C 11.925781 13.359375 11.824219 13.257812 11.824219 13.132812 C 11.824219 13.007812 11.925781 12.90625 12.050781 12.90625 Z M 12.050781 12.90625 "/>
<path style=" stroke:none;fill-rule:nonzero;fill:rgb(25.882354%,25.882354%,25.882354%);fill-opacity:1;" d="M 12.050781 14.269531 L 18.648438 14.269531 C 18.773438 14.269531 18.875 14.371094 18.875 14.496094 C 18.875 14.625 18.773438 14.726562 18.648438 14.726562 L 12.050781 14.726562 C 11.925781 14.726562 11.824219 14.625 11.824219 14.496094 C 11.824219 14.371094 11.925781 14.269531 12.050781 14.269531 Z M 12.050781 14.269531 "/>
</g>
</svg>

<svg xmlns="http://www.w3.org/2000/svg" width="22pt" height="22pt" viewBox="0 0 22 22"><defs><linearGradient id="a" gradientUnits="userSpaceOnUse" x1="254" y1="233.5" x2="254" y2="254.667" gradientTransform="matrix(.04297 0 0 .04297 -2.729 9.24)"><stop offset="0" stop-opacity=".275"/><stop offset="1" stop-opacity="0"/></linearGradient><radialGradient id="b" gradientUnits="userSpaceOnUse" cx="450.909" cy="189.579" fx="450.909" fy="189.579" r="21.167" gradientTransform="matrix(0 -.05372 -.09669 0 36.75 43.722)"><stop offset="0" stop-opacity=".314"/><stop offset=".222" stop-opacity=".275"/><stop offset="1" stop-opacity="0"/></radialGradient><radialGradient id="c" gradientUnits="userSpaceOnUse" cx="450.909" cy="189.579" fx="450.909" fy="189.579" r="21.167" gradientTransform="matrix(0 .05372 .09669 0 -14.92 -5.175)"><stop offset="0" stop-opacity=".314"/><stop offset=".222" stop-opacity=".275"/><stop offset="1" stop-opacity="0"/></radialGradient><radialGradient id="d" gradientUnits="userSpaceOnUse" cx="450.909" cy="189.579" fx="450.909" fy="189.579" r="21.167" gradientTransform="matrix(0 -.05372 .09669 0 -14.92 43.722)"><stop offset="0" stop-opacity=".314"/><stop offset=".222" stop-opacity=".275"/><stop offset="1" stop-opacity="0"/></radialGradient><radialGradient id="e" gradientUnits="userSpaceOnUse" cx="450.909" cy="189.579" fx="450.909" fy="189.579" r="21.167" gradientTransform="matrix(0 .05372 -.09669 0 36.75 -5.175)"><stop offset="0" stop-opacity=".314"/><stop offset=".222" stop-opacity=".275"/><stop offset="1" stop-opacity="0"/></radialGradient><linearGradient id="f" gradientUnits="userSpaceOnUse" x1="42.333" y1="32.417" x2="254" y2="32.417" gradientTransform="matrix(.04297 0 0 .04297 0 9.24)"><stop offset="0" stop-color="#eee"/><stop offset="1" stop-color="#e0e0e0"/></linearGradient><linearGradient id="g" gradientUnits="userSpaceOnUse" x1="465.667" y1="21.833" x2="254" y2="21.833" gradientTransform="matrix(.04297 0 0 .04297 0 9.24)"><stop offset="0" stop-color="#e0e0e0"/><stop offset="1" stop-color="#bdbdbd"/></linearGradient><linearGradient id="h" gradientUnits="userSpaceOnUse" x1="840" y1="1175.118" x2="840" y2="135.118" gradientTransform="matrix(.26458 0 0 .26458 -10.583 -209.708)"><stop offset="0" stop-color="#ef5350"/><stop offset="1" stop-color="#e57373"/></linearGradient></defs><path d="M3.184 19.273h15.464v.91H3.184zm0 0" fill="url(#a)"/><path d="M18.648 19.273h1.817v-.91h-1.817zm0 0" fill="url(#b)"/><path d="M3.184 19.273h-1.82v.91h1.82zm0 0" fill="url(#c)"/><path d="M3.184 19.273h-1.82v-.91h1.82zm0 0" fill="url(#d)"/><path d="M18.648 19.273h1.817v.91h-1.817zm0 0" fill="url(#e)"/><path d="M2.73 1.992h16.372c.503 0 .91.406.91.91v15.461c0 .504-.407.91-.91.91H2.73a.909.909 0 0 1-.91-.91V2.903c0-.505.407-.91.91-.91zm0 0" fill="url(#f)"/><path d="M10.914 1.992v17.281h8.188c.503 0 .91-.406.91-.91V2.903a.909.909 0 0 0-.91-.91zm0 0" fill="url(#g)"/><path d="M2.73 19.277a.909.909 0 0 1-.91-.91v-.176c0 .504.407.91.91.91h16.372c.503 0 .91-.406.91-.91v.176c0 .504-.407.91-.91.91zm0 0" fill-opacity=".196"/><path d="M2.73 1.992a.909.909 0 0 0-.91.91v.172c0-.504.407-.91.91-.91h16.372c.503 0 .91.406.91.91v-.172a.909.909 0 0 0-.91-.91zm0 0" fill="#fff" fill-opacity=".588"/><path d="M3.184 4.719h6.593c.125 0 .227.101.227.226 0 .13-.102.23-.227.23H3.184a.228.228 0 0 1-.227-.23c0-.125.102-.226.227-.226zm0 0M3.184 6.086h6.593a.227.227 0 0 1 0 .453H3.184a.227.227 0 0 1 0-.453zm0 0M3.184 7.45h6.593a.227.227 0 0 1 0 .452H3.184a.227.227 0 0 1 0-.453zm0 0M3.184 8.813h6.593c.125 0 .227.101.227.226a.23.23 0 0 1-.227.23H3.184a.23.23 0 0 1-.227-.23c0-.125.102-.226.227-.226zm0 0" fill="#424242"/><path d="M2.73 1.926a.977.977 0 0 0-.976.976v15.461c0 .54.437.973.976.973h16.372a.97.97 0 0 0 .972-.973V2.903a.974.974 0 0 0-.972-.977zm0 .129h16.372c.468 0 .843.375.843.847v15.461a.84.84 0 0 1-.843.844H2.73a.841.841 0 0 1-.847-.844V2.903c0-.473.375-.848.847-.848zm0 0" fill="#212121"/><path d="M11.027 1.992v17.281h-.113V1.993zm0 0" fill-opacity=".196"/><path d="M10.914 1.992v17.281h-.113V1.993zm0 0" fill="#e6e6e6" fill-opacity=".588"/><path d="M10.973 1.992v17.281h-.114V1.993zm0 0" fill="#212121" fill-opacity=".992"/><path d="M3.184 10.176h6.593c.125 0 .227.101.227.23a.227.227 0 0 1-.227.227H3.184a.227.227 0 0 1-.227-.227c0-.129.102-.23.227-.23zm0 0M3.184 11.543h6.593a.227.227 0 0 1 0 .453H3.184a.227.227 0 0 1 0-.453zm0 0M3.184 12.906h6.593a.227.227 0 0 1 0 .453H3.184a.227.227 0 0 1 0-.453zm0 0M3.184 14.27h6.593c.125 0 .227.101.227.226 0 .129-.102.23-.227.23H3.184a.228.228 0 0 1-.227-.23c0-.125.102-.226.227-.226zm0 0" fill="#424242"/><path d="M201.072-173.913c-5.818 0-10.545 4.636-10.545 10.544V80.063c0 1.363.091 2.818.364 4.181l20.816-57.085c2.636-6.636 7.908-6.636 10.545 0l20.725 57.085c.272-1.363.454-2.818.454-4.181V-163.37c0-5.908-4.727-10.544-10.635-10.544zm0 0" transform="matrix(.04297 0 0 .04297 0 9.24)" fill="url(#h)" stroke-width="3" stroke-linecap="round" stroke="#212121"/><path d="M12.05 4.719h6.598c.125 0 .227.101.227.226 0 .13-.102.23-.227.23h-6.597a.228.228 0 0 1-.227-.23c0-.125.102-.226.227-.226zm0 0M12.05 6.086h6.598a.227.227 0 0 1 0 .453h-6.597a.227.227 0 0 1 0-.453zm0 0M12.05 7.45h6.598a.227.227 0 0 1 0 .452h-6.597a.227.227 0 0 1 0-.453zm0 0M12.05 8.813h6.598c.125 0 .227.101.227.226a.23.23 0 0 1-.227.23h-6.597a.23.23 0 0 1-.227-.23c0-.125.102-.226.227-.226zm0 0M12.05 10.176h6.598c.125 0 .227.101.227.23a.227.227 0 0 1-.227.227h-6.597a.227.227 0 0 1-.227-.227c0-.129.102-.23.227-.23zm0 0M12.05 11.543h6.598a.227.227 0 0 1 0 .453h-6.597a.227.227 0 0 1 0-.453zm0 0M12.05 12.906h6.598a.227.227 0 0 1 0 .453h-6.597a.227.227 0 0 1 0-.453zm0 0M12.05 14.27h6.598c.125 0 .227.101.227.226 0 .129-.102.23-.227.23h-6.597a.228.228 0 0 1-.227-.23c0-.125.102-.226.227-.226zm0 0" fill="#424242"/></svg>
